X:211
T:In the Toyshop
M:4/4
L:1/8
K:G
B2 c2 | d2 d2 g>fg>e | d4 B4 | d2 d2 e>^d e2 | d6 d2 | 
d2 A2 A4 | d2  A2 A4 | c2 c2 B2  A2 | G4  B2 c2 | 
d2 d2 g>fg>e | d4 B4 | d2 d2 e>^d e2 | d6 d2 | 
d2 A2 A4 | d2  A2 A4 | c2 c2 B2 A2 | G4 || 
B2 d2 | e>^d e2 e>^d e2 | e>^d e2 e4 | d2 d2 d>c B>c | d4 B2 d2 | 
e>^d e2 e>^d e2 | e>^d e2 e4 | d>d d2 e2 e2 | f4 B2 c2 | 
d2 d2 g>fg>e | d4 B4 | d2 d2 e>^d e2 | d6 d2 | 
d2 A2 A4 | d2  A2 A4 | c2 c2 B2 A2 | G4 || 

